Newaita-dark/.DP/32/smplayer-panel.svg

<svg xmlns="http://www.w3.org/2000/svg" xmlns:xlink="http://www.w3.org/1999/xlink" width="32px" height="32px" viewBox="0 0 32 32" version="1.1">
<g id="surface1">
<path style=" stroke:none;fill-rule:nonzero;fill:rgb(93.333334%,93.333334%,93.333334%);fill-opacity:1;" d="M 9.589844 5.242188 C 3.5625 8.722656 1.511719 16.378906 4.992188 22.410156 C 8.472656 28.441406 16.128906 30.492188 22.160156 27.011719 C 28.191406 23.53125 30.242188 15.871094 26.761719 9.839844 C 23.277344 3.8125 15.621094 1.761719 9.589844 5.242188 Z M 9.816406 8.039062 C 9.824219 8.035156 9.832031 8.027344 9.839844 8.027344 C 10.109375 7.878906 10.449219 7.972656 10.601562 8.238281 L 13.027344 12.441406 C 13.15625 12.660156 13.113281 12.945312 12.933594 13.125 C 12.652344 13.402344 12.410156 13.714844 12.214844 14.058594 C 12.089844 14.28125 11.824219 14.390625 11.578125 14.324219 L 6.886719 13.066406 C 6.558594 12.980469 6.378906 12.625 6.511719 12.308594 C 7.195312 10.628906 8.324219 9.164062 9.773438 8.070312 C 9.785156 8.058594 9.800781 8.050781 9.816406 8.039062 Z M 11.910156 6.832031 L 11.960938 6.808594 C 13.632812 6.097656 15.464844 5.855469 17.261719 6.101562 C 17.601562 6.148438 17.820312 6.480469 17.730469 6.808594 L 16.472656 11.496094 C 16.410156 11.746094 16.183594 11.917969 15.925781 11.917969 C 15.527344 11.914062 15.136719 11.964844 14.757812 12.070312 C 14.511719 12.140625 14.246094 12.03125 14.117188 11.808594 L 11.691406 7.605469 C 11.535156 7.332031 11.632812 6.984375 11.910156 6.832031 Z M 6.125 14.34375 C 6.257812 14.269531 6.414062 14.246094 6.558594 14.285156 L 11.253906 15.542969 C 11.5 15.609375 11.671875 15.835938 11.667969 16.089844 C 11.667969 16.488281 11.71875 16.878906 11.824219 17.257812 C 11.894531 17.503906 11.785156 17.769531 11.5625 17.898438 L 7.363281 20.324219 C 7.066406 20.496094 6.691406 20.367188 6.5625 20.058594 C 5.851562 18.386719 5.609375 16.550781 5.855469 14.753906 C 5.878906 14.582031 5.980469 14.433594 6.125 14.34375 Z M 19.214844 6.785156 C 19.367188 6.703125 19.546875 6.691406 19.707031 6.757812 C 21.347656 7.425781 22.824219 8.527344 23.945312 10.019531 C 24.152344 10.289062 24.070312 10.675781 23.777344 10.847656 L 19.578125 13.273438 C 19.355469 13.402344 19.070312 13.363281 18.890625 13.175781 C 18.613281 12.894531 18.300781 12.652344 17.957031 12.460938 C 17.734375 12.332031 17.625 12.074219 17.691406 11.824219 L 18.949219 7.132812 C 18.988281 6.984375 19.082031 6.863281 19.214844 6.789062 Z M 13.105469 14.902344 C 13.238281 14.828125 13.398438 14.800781 13.558594 14.84375 C 13.878906 14.929688 14.066406 15.257812 13.980469 15.574219 C 13.894531 15.894531 13.566406 16.082031 13.25 15.996094 C 12.929688 15.914062 12.738281 15.585938 12.828125 15.269531 C 12.871094 15.105469 12.972656 14.980469 13.105469 14.902344 Z M 16.316406 13.292969 C 16.449219 13.214844 16.613281 13.191406 16.769531 13.234375 C 17.089844 13.316406 17.277344 13.644531 17.191406 13.964844 C 17.109375 14.285156 16.78125 14.472656 16.460938 14.386719 C 16.230469 14.324219 16.054688 14.128906 16.023438 13.886719 C 15.992188 13.648438 16.105469 13.414062 16.316406 13.292969 Z M 7.992188 21.414062 L 12.191406 18.988281 C 12.417969 18.859375 12.699219 18.902344 12.878906 19.082031 C 13.152344 19.363281 13.46875 19.605469 13.8125 19.800781 C 14.035156 19.929688 14.144531 20.191406 14.078125 20.4375 L 12.820312 25.128906 C 12.734375 25.457031 12.378906 25.636719 12.066406 25.507812 C 10.382812 24.820312 8.917969 23.691406 7.824219 22.246094 C 7.621094 21.972656 7.699219 21.585938 7.992188 21.414062 Z M 24.410156 11.9375 C 24.699219 11.769531 25.078125 11.894531 25.210938 12.207031 C 25.917969 13.878906 26.160156 15.710938 25.914062 17.507812 C 25.867188 17.847656 25.535156 18.066406 25.207031 17.976562 L 20.519531 16.722656 C 20.269531 16.652344 20.097656 16.425781 20.097656 16.171875 C 20.105469 15.777344 20.050781 15.382812 19.945312 15.003906 C 19.875 14.753906 19.984375 14.492188 20.207031 14.363281 Z M 15.003906 18.191406 C 15.136719 18.117188 15.296875 18.089844 15.457031 18.136719 C 15.777344 18.21875 15.964844 18.546875 15.878906 18.863281 C 15.792969 19.183594 15.464844 19.371094 15.148438 19.285156 C 14.832031 19.203125 14.640625 18.875 14.726562 18.558594 C 14.769531 18.394531 14.871094 18.269531 15.003906 18.191406 Z M 18.292969 16.292969 C 18.660156 16.082031 19.128906 16.308594 19.183594 16.730469 C 19.242188 17.152344 18.847656 17.496094 18.4375 17.386719 C 18.207031 17.324219 18.03125 17.128906 18 16.886719 C 17.96875 16.648438 18.085938 16.414062 18.292969 16.292969 Z M 15.574219 20.410156 C 15.65625 20.371094 15.75 20.34375 15.84375 20.347656 C 16.238281 20.351562 16.628906 20.300781 17.011719 20.191406 C 17.261719 20.121094 17.523438 20.230469 17.652344 20.453125 L 20.078125 24.652344 C 20.246094 24.945312 20.121094 25.324219 19.808594 25.457031 C 18.136719 26.164062 16.308594 26.40625 14.507812 26.160156 C 14.167969 26.113281 13.949219 25.785156 14.039062 25.457031 L 15.296875 20.765625 C 15.332031 20.621094 15.425781 20.503906 15.550781 20.425781 C 15.558594 20.421875 15.566406 20.417969 15.574219 20.410156 Z M 19.757812 17.996094 C 19.886719 17.917969 20.042969 17.898438 20.191406 17.9375 L 24.882812 19.195312 C 25.210938 19.285156 25.386719 19.636719 25.261719 19.949219 C 24.589844 21.59375 23.488281 23.070312 21.996094 24.191406 C 21.726562 24.394531 21.339844 24.316406 21.167969 24.027344 L 18.746094 19.824219 C 18.613281 19.597656 18.652344 19.316406 18.839844 19.136719 C 19.121094 18.863281 19.363281 18.546875 19.554688 18.203125 C 19.605469 18.121094 19.671875 18.050781 19.757812 17.996094 Z M 19.757812 17.996094 "/>
</g>
</svg>

<svg xmlns="http://www.w3.org/2000/svg" width="32" height="32"><path d="M9.594 5.242A12.54 12.54 0 0 0 4.992 22.41a12.54 12.54 0 0 0 17.168 4.602 12.54 12.54 0 0 0 4.602-17.168A12.54 12.54 0 0 0 9.594 5.242zm.222 2.797c.008-.004.016-.012.028-.012a.562.562 0 0 1 .758.211l2.425 4.2a.567.567 0 0 1-.093.687c-.286.277-.524.59-.72.934a.567.567 0 0 1-.636.265l-4.691-1.258a.562.562 0 0 1-.375-.757A10.07 10.07 0 0 1 9.773 8.07c.012-.011.028-.02.043-.03zm2.094-1.207l.05-.023a10.067 10.067 0 0 1 5.306-.707.563.563 0 0 1 .464.707l-1.253 4.687a.569.569 0 0 1-.555.418c-.39 0-.785.05-1.164.156a.563.563 0 0 1-.64-.261l-2.427-4.2a.566.566 0 0 1 .22-.777zm-5.785 7.512a.59.59 0 0 1 .438-.059l4.69 1.258a.562.562 0 0 1 .415.55c0 .391.05.786.156 1.165.07.25-.039.512-.261.64l-4.2 2.426a.565.565 0 0 1-.8-.27 10.058 10.058 0 0 1-.708-5.3.565.565 0 0 1 .27-.41zm13.09-7.555a.56.56 0 0 1 .492-.031 10.04 10.04 0 0 1 4.238 3.262.566.566 0 0 1-.168.828l-4.199 2.425a.563.563 0 0 1-.687-.097 4.174 4.174 0 0 0-.934-.715.567.567 0 0 1-.266-.637l1.258-4.691a.549.549 0 0 1 .266-.344zm-6.11 8.113a.595.595 0 1 1 .145 1.094.592.592 0 0 1-.422-.73.597.597 0 0 1 .277-.364zm3.211-1.609a.586.586 0 0 1 .454-.059c.32.082.507.41.425.73a.6.6 0 0 1-.734.423.593.593 0 0 1-.438-.5.6.6 0 0 1 .293-.594zm-8.324 8.121l4.203-2.426a.568.568 0 0 1 .684.094c.273.285.59.523.934.719a.565.565 0 0 1 .265.637l-1.258 4.69a.563.563 0 0 1-.758.38 10.101 10.101 0 0 1-4.238-3.262.57.57 0 0 1 .168-.832zm16.414-9.477a.568.568 0 0 1 .805.27c.707 1.672.953 3.504.703 5.3a.566.566 0 0 1-.707.47l-4.687-1.258a.556.556 0 0 1-.418-.547 4.21 4.21 0 0 0-.157-1.168.565.565 0 0 1 .262-.64zm-9.402 6.254a.595.595 0 0 1 .875.672.589.589 0 0 1-.73.422.59.59 0 0 1-.422-.726.594.594 0 0 1 .277-.368zm3.289-1.898a.597.597 0 0 1 .89.441.594.594 0 0 1-.745.653.593.593 0 0 1-.438-.496.603.603 0 0 1 .293-.598zm-2.719 4.121a.503.503 0 0 1 .27-.066c.39.004.785-.047 1.168-.157.246-.07.511.04.64.262l2.426 4.2a.566.566 0 0 1-.265.8c-1.672.711-3.508.953-5.305.707a.56.56 0 0 1-.469-.703l1.258-4.691a.54.54 0 0 1 .254-.336c.008-.008.015-.012.023-.016zM19.758 18a.547.547 0 0 1 .433-.063l4.692 1.258a.562.562 0 0 1 .375.758 10.04 10.04 0 0 1-3.262 4.238.566.566 0 0 1-.828-.168l-2.422-4.199a.557.557 0 0 1 .094-.687c.281-.274.52-.59.715-.934a.534.534 0 0 1 .203-.203zm0 0" fill="#bdbdbd"/></svg>
